X:1
T:Wardle, 76.76 D
T:Wardle, 76.76 D
T:Thomas Wardle (1831-1909)
T:Public Domain Courtesy of the Cyber Hymnal™
C:Thomas Wardle (1831-1909)
Z:Public Domain
Z:Courtesy of the Cyber Hymnal™
%%score ( 1 2 ) ( 3 4 )
L:1/8
Q:1/4=110
M:4/4
K:F
V:1 treble 
V:2 treble 
V:3 bass 
V:4 bass 
V:1
 [CF]3 [CE] [A,F]2 [CG]2 | [CA]2 [EG]2 F4 | A3 z B [Fc]2 [FA]2 | [FA]4 [EG]4 | d3 z B c3 z A | %5
 B3 z G [FA]4 | [FB]2 [Gd]2 [Ac]2 [FA]2 | G4 F4 | [Fd]2 [Fd]2 [Fd]2 [Fd]2 | [Fc]2 [Fc]2 [_Ec]4 | %10
 B3 z d [Fc]2 [FA]2 | [FA]4 [EG]4 | A3 A G2 A2 | F2 D2 C4 | [DB]2 [Ed]2 c3 z A | G4 [CF]4 |] %16
V:2
 x8 | x4 F4 | F2 F2 x5 | x8 | F2 F2 F2 F2 x2 | F2 E2 x5 | x8 | (F2 E2) F4 | x8 | x8 | E2 E2 x5 | %11
 x8 | A3 A G2 A2 | F2 D2 C4 | x4 F2 F2 x | (F2 E2) x4 |] %16
V:3
 [F,A,]3 [C,G,] [D,F,]2 [C,E,]2 | [A,,E,]2 [C,C]2 [F,A,]4 | [F,C]2 [D,F,]2 [A,,D,]2 [B,,D]2 x | %3
 [C,C]4 [C,C]4 | B,3 z D A,3 z C | [G,B,]2 [C,C]2 [F,C]4 x | [D,B,]2 [E,B,]2 [F,A,]2 [A,,C]2 | %7
 ([B,,D]2 [C,C]2) [F,A,]4 | [D,A,]2 [D,A,]2 [B,,B,]2 [D,B,]2 | [F,A,]2 [A,,A,]2 (G,2 A,2) | %10
 B,3 z B, [A,C]2 [F,C]2 | (C2 =B,2) [C,C]4 | A,3 A, G,2 A,2 | F,2 D,2 C,4 | %14
 [B,,F,]2 [G,,B,]2 [A,,A,]2 [A,,C]2 x | [C,B,]4 [F,,A,]4 |] %16
V:4
 x8 | x8 | x9 | x8 | B,2 G,2 A,2 F,2 x2 | x9 | x8 | x8 | x8 | x4 C,4 | G,2 G,2 x5 | C,4 x4 | %12
 A,3 A, G,2 A,2 | F,2 D,2 C,4 | x9 | x8 |] %16

